X:0932
T:Fee him Father fee him.
M:C
L:1/8
Q:1/4=100
N:initial rest added
I: :: ||
Z:Jack Campin * www.campin.me.uk * 2009
K:G
z|G<GAB  dBBg|G<GAB  d<B z:|\
f|g>fed  edBf|g>agf  e<B zf|\
  gfed   efg2|              \
  G<GA>B dBBg|G<GA>B d<B z|]

